outputs/icons/communication/sms_round.svg

<svg xmlns="http://www.w3.org/2000/svg" width="1200" height="1200" fill="none"><g clip-path="url(#a)"><path fill="#000" d="M1000 100H200c-55 0-99.5 45-99.5 100l-.5 900 200-200h700c55 0 100-45 100-100V200c0-55-45-100-100-100M450 550H350V450h100zm200 0H550V450h100zm200 0H750V450h100z"/></g><defs><clipPath id="a"><path fill="#fff" d="M0 0h1200v1200H0z"/></clipPath></defs></svg>

<svg width="1200" height="1200" viewBox="0 0 1200 1200" fill="none" xmlns="http://www.w3.org/2000/svg"><g clip-path="url(#clip0_225_2427)"><path d="M1000 100H200C145 100 100.5 145 100.5 200L100 1100L300 900H1000C1055 900 1100 855 1100 800V200C1100 145 1055 100 1000 100ZM450 550H350V450H450V550ZM650 550H550V450H650V550ZM850 550H750V450H850V550Z" fill="black"/></g><defs><clipPath id="clip0_225_2427"><path width="24" fill="white" d="M0 0H1200V1200H0V0z"/></clipPath></defs></svg>
